X: 33227
T: Puddleglum's Misery
R: barndance
M: 4/4
K: Aminor
|:(3G^F=F|E2 e2 ^d2 =d2|cBAB c2 BA|^GEGB eBGE|
AEAc ecAc|E2e2 ^d2=d2|cBAB c2 BA|^GEGB edcB|(3ABA ^GB A2:|
K:G
|:(3cBA|G2g2f2=f2|edcd e2 dc|BGBd gdBd|cBcd edcA|
G2g2f2=f2|edcd e3z|(3EFE ^DE edcB|(3ABA ^GB A2:|

